icon-themes/breeze_svg/cmd/sc_mailmergeprintdocuments.svg

<svg viewBox="0 0 16 16" xmlns="http://www.w3.org/2000/svg"><path d="m4 2v1 2h-1-1v1 5 1h1 2v1 1h5 1v-1-1h2 1v-1-5-1h-2v-2-1zm1 1h6v2h-6zm-2 3h10v5h-1v-1h-8v1h-1zm7 1v1h2v-1zm-4 5h4v1h-4z" fill="#4d4d4d"/></svg>

<svg viewBox="0 0 16 16" xmlns="http://www.w3.org/2000/svg">
  <path
     style="fill:#4d4d4d"
     d="M 4,2 V 3 5 H 3 2 v 1 5 1 h 1 2 v 1 1 h 5 1 v -1 -1 h 2 1 V 11 6 5 H 12 V 3 2 Z m 1,1 h 6 V 5 H 5 Z M 3,6 h 10 v 5 H 12 V 10 H 4 v 1 H 3 Z m 7,1 v 1 h 2 V 7 Z m -4,5 h 4 v 1 H 6 Z"
     />
</svg>
